X:1
T:My Darling Asleep
C:Traditional
M:6/8
L:1/8
Q:3/8=120
K:D
f e d c B A | A G F E D F | A B c d e f | a g f e d c |
f e d c B A | A G F E D F | A B c d e f | g f e d3 |]
